icons/24x24_linkedin_filled.svg

<svg xmlns="http://www.w3.org/2000/svg" width="24" height="24" viewBox="0 0 24 24">
  <path fill-rule="evenodd" d="M19.75,19.0001 L16.75,19.0001 L16.75,14.0211 C16.75,12.8581 16.473,11.3631 14.875,11.3631 C13.254,11.3631 12.75,12.6301 12.75,13.9381 L12.75,19.0001 L9.75,19.0001 L9.75,9.0001 L12.75,9.0001 L12.75,10.0001 L12.961,10.0001 C13.377,9.0001 14.446,8.5031 15.961,8.5031 C19.115,8.5031 19.75,10.6991 19.75,13.3981 L19.75,19.0001 Z M4.25,6.0001 C4.25,4.8961 5.143,4.0001 6.251,4.0001 C7.354,4.0001 8.25,4.8961 8.25,6.0001 C8.25,7.1041 7.354,8.0001 6.251,8.0001 C5.143,8.0001 4.25,7.1041 4.25,6.0001 Z M4.75,19.0001 L7.75,19.0001 L7.75,9.0001 L4.75,9.0001 L4.75,19.0001 Z"/>
</svg>

<svg width="24" height="24" fill="none" xmlns="http://www.w3.org/2000/svg"><path fill-rule="evenodd" clip-rule="evenodd" d="M19.75 19h-3v-4.979c0-1.163-.277-2.658-1.875-2.658-1.621 0-2.125 1.267-2.125 2.575V19h-3V9h3v1h.211c.416-1 1.485-1.497 3-1.497 3.154 0 3.789 2.196 3.789 4.895V19ZM4.25 6a1.999 1.999 0 1 1 4 0 2 2 0 0 1-4 0Zm.5 13h3V9h-3v10Z" fill="#000"/></svg>
